X:1
T:Port Harcourt, 12.12.12.12
T:Port Harcourt, 12.12.12.12
T:Robert Lowry, 1886
T:Public Domain Courtesy of the Cyber Hymnal™
C:Robert Lowry, 1886
Z:Public Domain
Z:Courtesy of the Cyber Hymnal™
%%score ( 1 2 ) ( 3 4 )
L:1/8
Q:1/4=110
M:4/4
K:D
V:1 treble 
V:2 treble 
V:3 bass 
V:4 bass 
V:1
 [FA]2 | [Fd]3 [FA] [DF]2 [GB]2 | [FA]6 [EG]2 | [DF]2 (ED) [CE]2 [CA]2 | [DF]6 [FA]2 | %5
 [Fd]3 [Fd] [Gc]2 [GB]2 | [FA]6 [Fd]2 | [Ge]3 [FA] [Ec]2 [DB]2 | [CA]6 [CA]2 | %9
 [Ge]3 [F^d] [Ge]2 [GA]2 | (A2 d4) [Fd]2 | [Gd]3 [Gc] [Gd]2 [GB]2 | [FA]6 [FA]2 | %13
 [GB]3 [GB] [Gc]2 [Gc]2 | [Fd]2 [Fd]2 [GB]2 [Ge]2 | [Fd]4 c4 | [Fd]6 |] %17
V:2
 x2 | x8 | x8 | x2 D2 x4 | x8 | x8 | x8 | x8 | x8 | x8 | F6 x2 | x8 | x8 | x8 | x8 | x4 (E2 G2) | %16
 x6 |] %17
V:3
 [D,A,]2 | [D,A,]3 [D,A,] [D,A,]2 [D,D]2 | [D,D]6 [C,A,]2 | [D,A,]2 [B,,^G,]2 [A,,A,]2 [A,,A,]2 | %4
 [D,A,]6 [D,D]2 | [D,A,]3 [D,A,] [D,B,]2 [D,C]2 | [D,D]6 [D,A,]2 | %7
 [C,A,]3 [D,A,] [E,A,]2 [E,^G,]2 | [A,,A,]6 [A,,A,]2 | [A,,A,]3 [A,,A,] [A,,A,]2 [A,,C]2 | %10
 (D2 A,4) [D,=C]2 | [G,B,]3 [G,^A,] [G,B,]2 [G,D]2 | [D,D]6 [D,D]2 | [G,D]3 [G,D] [E,A,]2 [E,A,]2 | %14
 [D,A,]2 [B,D]2 [G,D]2 [G,B,]2 | A,4 [A,,A,]4 | [D,A,]6 |] %17
V:4
 x2 | x8 | x8 | x8 | x8 | x8 | x8 | x8 | x8 | x8 | D,6 x2 | x8 | x8 | x8 | x8 | A,4 x4 | x6 |] %17

